X: 336
%
U:~=!turn!
T: Liverpool Hornpipe
C:
O:Scotland
B:Keith Norman MacDonald : "The Skye collection of the best reels & strathspeys extant" : 1887
Z:Ralph Palmer
R:Hornpipe
M:C
L:1/8
K:D
(AG) | FDFA dfaf | (gf)(ed) (dc)(BA) | GBGB FAFA | EFGA (GF)ED | FDFA dfaf |
(gf)(ed) (dc)(BA) | dfaf bgec | d2 f2 d2 :: A2 | dfdf cece | BcdB {/c}(BA)(GF) |
GBGB FAFA | EFGA (GF)(ED) | FDFA dfaf | (gf)(ed) (dc)(BA) | dfaf bgec | d2 f2 d2 :|


